static/img/kroki/31c40816a24c0ff2b13ba3808bbdeab4.svg

<?xml version="1.0" encoding="us-ascii" standalone="no"?><svg xmlns="http://www.w3.org/2000/svg" xmlns:xlink="http://www.w3.org/1999/xlink" contentStyleType="text/css" height="535px" preserveAspectRatio="none" style="width:447px;height:535px;" version="1.1" viewBox="0 0 447 535" width="447px" zoomAndPan="magnify"><defs/><g><!--class microsoft_graph_entity--><g id="elem_microsoft_graph_entity"><rect codeLine="23" fill="#3D176E" height="39.7891" id="microsoft_graph_entity" rx="2.5" ry="2.5" style="stroke:#000D19;stroke-width:0.5;" width="236" x="10" y="328.58"/><ellipse cx="25" cy="348.4745" fill="#ADD1B2" rx="11" ry="11" style="stroke:#181818;stroke-width:1.0;"/><path d="M27.9688,354.1152 Q27.3906,354.412 26.75,354.5527 Q26.1094,354.7089 25.4063,354.7089 Q22.9063,354.7089 21.5781,353.0683 Q20.2656,351.412 20.2656,348.287 Q20.2656,345.162 21.5781,343.5058 Q22.9063,341.8495 25.4063,341.8495 Q26.1094,341.8495 26.75,342.0058 Q27.4063,342.162 27.9688,342.4589 L27.9688,345.1777 Q27.3438,344.5995 26.75,344.3339 Q26.1563,344.0527 25.5313,344.0527 Q24.1875,344.0527 23.5,345.1308 Q22.8125,346.1933 22.8125,348.287 Q22.8125,350.3808 23.5,351.4589 Q24.1875,352.5214 25.5313,352.5214 Q26.1563,352.5214 26.75,352.2558 Q27.3438,351.9745 27.9688,351.3964 L27.9688,354.1152 Z " fill="#000000"/><text fill="#D9B8FF" font-family="Helvetica" font-size="17" lengthAdjust="spacing" textLength="194" x="44" y="354.3598">microsoft_graph_entity</text></g><!--class microsoft_graph_organization_root--><g id="elem_microsoft_graph_organization_root"><rect codeLine="26" fill="#3D176E" height="39.7891" id="microsoft_graph_organization_root" rx="2.5" ry="2.5" style="stroke:#000D19;stroke-width:0.5;" width="333" x="60.5" y="489.37"/><ellipse cx="75.5" cy="509.2645" fill="#ADD1B2" rx="11" ry="11" style="stroke:#181818;stroke-width:1.0;"/><path d="M78.4688,514.9052 Q77.8906,515.202 77.25,515.3427 Q76.6094,515.4989 75.9063,515.4989 Q73.4063,515.4989 72.0781,513.8583 Q70.7656,512.202 70.7656,509.077 Q70.7656,505.952 72.0781,504.2958 Q73.4063,502.6395 75.9063,502.6395 Q76.6094,502.6395 77.25,502.7958 Q77.9063,502.952 78.4688,503.2489 L78.4688,505.9677 Q77.8438,505.3895 77.25,505.1239 Q76.6563,504.8427 76.0313,504.8427 Q74.6875,504.8427 74,505.9208 Q73.3125,506.9833 73.3125,509.077 Q73.3125,511.1708 74,512.2489 Q74.6875,513.3114 76.0313,513.3114 Q76.6563,513.3114 77.25,513.0458 Q77.8438,512.7645 78.4688,512.1864 L78.4688,514.9052 Z " fill="#000000"/><text fill="#D9B8FF" font-family="Helvetica" font-size="17" lengthAdjust="spacing" textLength="291" x="94.5" y="515.1498">microsoft_graph_organization_root</text></g><!--class microsoft_resource--><g id="elem_microsoft_resource"><rect codeLine="29" fill="#3D176E" height="39.7891" id="microsoft_resource" rx="2.5" ry="2.5" style="stroke:#000D19;stroke-width:0.5;" width="200" x="7" y="167.79"/><ellipse cx="22" cy="187.6845" fill="#ADD1B2" rx="11" ry="11" style="stroke:#181818;stroke-width:1.0;"/><path d="M24.9688,193.3252 Q24.3906,193.622 23.75,193.7627 Q23.1094,193.9189 22.4063,193.9189 Q19.9063,193.9189 18.5781,192.2783 Q17.2656,190.622 17.2656,187.497 Q17.2656,184.372 18.5781,182.7158 Q19.9063,181.0595 22.4063,181.0595 Q23.1094,181.0595 23.75,181.2158 Q24.4063,181.372 24.9688,181.6689 L24.9688,184.3877 Q24.3438,183.8095 23.75,183.5439 Q23.1563,183.2627 22.5313,183.2627 Q21.1875,183.2627 20.5,184.3408 Q19.8125,185.4033 19.8125,187.497 Q19.8125,189.5908 20.5,190.6689 Q21.1875,191.7314 22.5313,191.7314 Q23.1563,191.7314 23.75,191.4658 Q24.3438,191.1845 24.9688,190.6064 L24.9688,193.3252 Z " fill="#000000"/><text fill="#D9B8FF" font-family="Helvetica" font-size="17" lengthAdjust="spacing" textLength="158" x="41" y="193.5698">microsoft_resource</text></g><!--class phantom_resource--><g id="elem_phantom_resource"><rect codeLine="32" fill="#3D176E" height="39.7891" id="phantom_resource" rx="2.5" ry="2.5" style="stroke:#000D19;stroke-width:0.5;" width="198" x="242" y="167.79"/><ellipse cx="257" cy="187.6845" fill="#ADD1B2" rx="11" ry="11" style="stroke:#181818;stroke-width:1.0;"/><path d="M259.9688,193.3252 Q259.3906,193.622 258.75,193.7627 Q258.1094,193.9189 257.4063,193.9189 Q254.9063,193.9189 253.5781,192.2783 Q252.2656,190.622 252.2656,187.497 Q252.2656,184.372 253.5781,182.7158 Q254.9063,181.0595 257.4063,181.0595 Q258.1094,181.0595 258.75,181.2158 Q259.4063,181.372 259.9688,181.6689 L259.9688,184.3877 Q259.3438,183.8095 258.75,183.5439 Q258.1563,183.2627 257.5313,183.2627 Q256.1875,183.2627 255.5,184.3408 Q254.8125,185.4033 254.8125,187.497 Q254.8125,189.5908 255.5,190.6689 Q256.1875,191.7314 257.5313,191.7314 Q258.1563,191.7314 258.75,191.4658 Q259.3438,191.1845 259.9688,190.6064 L259.9688,193.3252 Z " fill="#000000"/><text fill="#D9B8FF" font-family="Helvetica" font-size="17" lengthAdjust="spacing" textLength="156" x="276" y="193.5698">phantom_resource</text></g><!--class region--><g id="elem_region"><rect codeLine="35" fill="#3D176E" height="39.7891" id="region" rx="2.5" ry="2.5" style="stroke:#000D19;stroke-width:0.5;" width="95" x="282.5" y="328.58"/><ellipse cx="297.5" cy="348.4745" fill="#ADD1B2" rx="11" ry="11" style="stroke:#181818;stroke-width:1.0;"/><path d="M300.4688,354.1152 Q299.8906,354.412 299.25,354.5527 Q298.6094,354.7089 297.9063,354.7089 Q295.4063,354.7089 294.0781,353.0683 Q292.7656,351.412 292.7656,348.287 Q292.7656,345.162 294.0781,343.5058 Q295.4063,341.8495 297.9063,341.8495 Q298.6094,341.8495 299.25,342.0058 Q299.9063,342.162 300.4688,342.4589 L300.4688,345.1777 Q299.8438,344.5995 299.25,344.3339 Q298.6563,344.0527 298.0313,344.0527 Q296.6875,344.0527 296,345.1308 Q295.3125,346.1933 295.3125,348.287 Q295.3125,350.3808 296,351.4589 Q296.6875,352.5214 298.0313,352.5214 Q298.6563,352.5214 299.25,352.2558 Q299.8438,351.9745 300.4688,351.3964 L300.4688,354.1152 Z " fill="#000000"/><text fill="#D9B8FF" font-family="Helvetica" font-size="17" lengthAdjust="spacing" textLength="53" x="316.5" y="354.3598">region</text></g><!--class resource--><g id="elem_resource"><rect codeLine="38" fill="#3D176E" height="39.7891" id="resource" rx="2.5" ry="2.5" style="stroke:#000D19;stroke-width:0.5;" width="113" x="166.5" y="7"/><ellipse cx="181.5" cy="26.8945" fill="#ADD1B2" rx="11" ry="11" style="stroke:#181818;stroke-width:1.0;"/><path d="M184.4688,32.5352 Q183.8906,32.832 183.25,32.9727 Q182.6094,33.1289 181.9063,33.1289 Q179.4063,33.1289 178.0781,31.4883 Q176.7656,29.832 176.7656,26.707 Q176.7656,23.582 178.0781,21.9258 Q179.4063,20.2695 181.9063,20.2695 Q182.6094,20.2695 183.25,20.4258 Q183.9063,20.582 184.4688,20.8789 L184.4688,23.5977 Q183.8438,23.0195 183.25,22.7539 Q182.6563,22.4727 182.0313,22.4727 Q180.6875,22.4727 180,23.5508 Q179.3125,24.6133 179.3125,26.707 Q179.3125,28.8008 180,29.8789 Q180.6875,30.9414 182.0313,30.9414 Q182.6563,30.9414 183.25,30.6758 Q183.8438,30.3945 184.4688,29.8164 L184.4688,32.5352 Z " fill="#000000"/><text fill="#D9B8FF" font-family="Helvetica" font-size="17" lengthAdjust="spacing" textLength="71" x="200.5" y="32.7798">resource</text></g><!--reverse link microsoft_resource to microsoft_graph_entity--><g id="link_microsoft_resource_microsoft_graph_entity"><path codeLine="41" d="M111.8921,225.6843 C115.9321,256.2043 121.42,297.69 125.46,328.25 " fill="none" id="microsoft_resource-backto-microsoft_graph_entity" style="stroke:#FFAF37;stroke-width:2.0;"/><polygon fill="none" points="109.53,207.84,105.944,226.4717,117.8402,224.897,109.53,207.84" style="stroke:#FFAF37;stroke-width:2.0;"/></g><!--reverse link microsoft_graph_entity to microsoft_graph_organization_root--><g id="link_microsoft_graph_entity_microsoft_graph_organization_root"><path codeLine="42" d="M149.4638,383.9041 C168.4938,414.4241 195.96,458.48 215.02,489.04 " fill="none" id="microsoft_graph_entity-backto-microsoft_graph_organization_root" style="stroke:#FFAF37;stroke-width:2.0;"/><polygon fill="none" points="139.94,368.63,144.3724,387.0787,154.5551,380.7295,139.94,368.63" style="stroke:#FFAF37;stroke-width:2.0;"/></g><!--reverse link region to microsoft_graph_organization_root--><g id="link_region_microsoft_graph_organization_root"><path codeLine="43" d="M307.7834,383.7306 C287.9834,414.2506 259.29,458.48 239.47,489.04 " fill="none" id="region-backto-microsoft_graph_organization_root" style="stroke:#FFAF37;stroke-width:2.0;"/><polygon fill="none" points="317.58,368.63,302.7499,380.465,312.817,386.9961,317.58,368.63" style="stroke:#FFAF37;stroke-width:2.0;"/></g><!--reverse link resource to microsoft_resource--><g id="link_resource_microsoft_resource"><path codeLine="44" d="M198.3907,61.5837 C176.0907,92.1037 143.37,136.9 121.04,167.47 " fill="none" id="resource-backto-microsoft_resource" style="stroke:#FFAF37;stroke-width:2.0;"/><polygon fill="none" points="209.01,47.05,193.5461,58.044,203.2352,65.1235,209.01,47.05" style="stroke:#FFAF37;stroke-width:2.0;"/></g><!--reverse link resource to phantom_resource--><g id="link_resource_phantom_resource"><path codeLine="45" d="M247.9663,61.4976 C270.6463,92.0176 304,136.9 326.72,167.47 " fill="none" id="resource-backto-phantom_resource" style="stroke:#FFAF37;stroke-width:2.0;"/><polygon fill="none" points="237.23,47.05,243.1504,65.0763,252.7821,57.9188,237.23,47.05" style="stroke:#FFAF37;stroke-width:2.0;"/></g><!--reverse link phantom_resource to region--><g id="link_phantom_resource_region"><path codeLine="46" d="M338.4285,225.7971 C336.3185,256.3171 333.45,297.69 331.33,328.25 " fill="none" id="phantom_resource-backto-region" style="stroke:#FFAF37;stroke-width:2.0;"/><polygon fill="none" points="339.67,207.84,332.4428,225.3833,344.4142,226.211,339.67,207.84" style="stroke:#FFAF37;stroke-width:2.0;"/></g><!--SRC=[ZP9FJm8n4CNl_HHDF9E0H8742v8OlH0ZticmdUusR3kRQP60-jrTN31b_u3NUR_ElFVIp2YKQ8kmanRj2jaBlpQk00OhfyoqdL5EB6-q1ZqSrSKdSk4gC0UByXdp3mmcWJhndfbaxT1xUHj9Zv2iKwQDKzNwmE1yAQ4B4JNBmVjf26nMcu2H6JLPZRMka_MbDqCr6DrZ0oDMo4Uat- -hmQIEN3rrCVSViJ1xb8Euj3a5RDXidFYbBhey4979Hj2Jtkdn5PGoBfLtqUojyiGE-Mo-o43Hza1ho7rynWTafB0hSDP8XPEnqgDM-AKB5icXEcbDmkH9XsNAK6JBybUOyWT_2l7TGH2duCmUWY6tPABG3ZDwsd22iLfau0BPLeqnBHUUJsAgPVF3Lw_NwqWWEeArlsba4aSx_ySxF9s4Eb6lGZIwgRZAX_W1]--></g></svg>

<svg xmlns="http://www.w3.org/2000/svg" width="447" height="535" viewBox="0 0 447 535"><rect width="236" height="39.789" x="10" y="328.58" fill="#3D176E" rx="2.5" ry="2.5" style="stroke:#000d19;stroke-width:.5"/><circle cx="25" cy="348.474" r="11" fill="#ADD1B2" style="stroke:#181818;stroke-width:1"/><path d="M27.969 354.115q-.578.297-1.219.438-.64.156-1.344.156-2.5 0-3.828-1.64-1.312-1.657-1.312-4.782t1.312-4.781q1.328-1.656 3.828-1.656.703 0 1.344.156.656.156 1.219.453v2.719q-.625-.579-1.219-.844-.594-.281-1.219-.281-1.343 0-2.031 1.078-.687 1.062-.687 3.156t.687 3.172q.688 1.062 2.031 1.062.625 0 1.219-.265.594-.281 1.219-.86z"/><text x="44" y="354.36" fill="#D9B8FF" font-family="Helvetica" font-size="17" textLength="194">microsoft_graph_entity</text><rect width="333" height="39.789" x="60.5" y="489.37" fill="#3D176E" rx="2.5" ry="2.5" style="stroke:#000d19;stroke-width:.5"/><circle cx="75.5" cy="509.264" r="11" fill="#ADD1B2" style="stroke:#181818;stroke-width:1"/><path d="M78.469 514.905q-.578.297-1.219.438-.64.156-1.344.156-2.5 0-3.828-1.64-1.312-1.657-1.312-4.782t1.312-4.781q1.328-1.656 3.828-1.656.703 0 1.344.156.656.156 1.219.453v2.719q-.625-.579-1.219-.844-.594-.281-1.219-.281-1.344 0-2.031 1.078-.687 1.062-.687 3.156t.687 3.172q.688 1.062 2.031 1.062.625 0 1.219-.265.594-.282 1.219-.86z"/><text x="94.5" y="515.15" fill="#D9B8FF" font-family="Helvetica" font-size="17" textLength="291">microsoft_graph_organization_root</text><rect width="200" height="39.789" x="7" y="167.79" fill="#3D176E" rx="2.5" ry="2.5" style="stroke:#000d19;stroke-width:.5"/><circle cx="22" cy="187.685" r="11" fill="#ADD1B2" style="stroke:#181818;stroke-width:1"/><path d="M24.969 193.325q-.578.297-1.219.438-.64.156-1.344.156-2.5 0-3.828-1.64-1.312-1.657-1.312-4.782t1.312-4.781q1.328-1.656 3.828-1.656.703 0 1.344.156.656.156 1.219.453v2.719q-.625-.578-1.219-.844-.594-.281-1.219-.281-1.343 0-2.031 1.078-.687 1.062-.687 3.156t.687 3.172q.688 1.062 2.031 1.062.625 0 1.219-.265.594-.281 1.219-.86z"/><text x="41" y="193.57" fill="#D9B8FF" font-family="Helvetica" font-size="17" textLength="158">microsoft_resource</text><rect width="198" height="39.789" x="242" y="167.79" fill="#3D176E" rx="2.5" ry="2.5" style="stroke:#000d19;stroke-width:.5"/><circle cx="257" cy="187.685" r="11" fill="#ADD1B2" style="stroke:#181818;stroke-width:1"/><path d="M259.969 193.325q-.578.297-1.219.438-.64.156-1.344.156-2.5 0-3.828-1.64-1.312-1.657-1.312-4.782t1.312-4.781q1.328-1.656 3.828-1.656.703 0 1.344.156.656.156 1.219.453v2.719q-.625-.578-1.219-.844-.594-.281-1.219-.281-1.344 0-2.031 1.078-.687 1.062-.687 3.156t.687 3.172q.688 1.062 2.031 1.062.625 0 1.219-.265.594-.281 1.219-.86z"/><text x="276" y="193.57" fill="#D9B8FF" font-family="Helvetica" font-size="17" textLength="156">phantom_resource</text><rect width="95" height="39.789" x="282.5" y="328.58" fill="#3D176E" rx="2.5" ry="2.5" style="stroke:#000d19;stroke-width:.5"/><circle cx="297.5" cy="348.474" r="11" fill="#ADD1B2" style="stroke:#181818;stroke-width:1"/><path d="M300.469 354.115q-.578.297-1.219.438-.64.156-1.344.156-2.5 0-3.828-1.64-1.312-1.657-1.312-4.782t1.312-4.781q1.328-1.656 3.828-1.656.703 0 1.344.156.656.156 1.219.453v2.719q-.625-.579-1.219-.844-.594-.281-1.219-.281-1.344 0-2.031 1.078-.687 1.062-.687 3.156t.687 3.172q.688 1.062 2.031 1.062.625 0 1.219-.265.594-.281 1.219-.86z"/><text x="316.5" y="354.36" fill="#D9B8FF" font-family="Helvetica" font-size="17" textLength="53">region</text><rect width="113" height="39.789" x="166.5" y="7" fill="#3D176E" rx="2.5" ry="2.5" style="stroke:#000d19;stroke-width:.5"/><circle cx="181.5" cy="26.895" r="11" fill="#ADD1B2" style="stroke:#181818;stroke-width:1"/><path d="M184.469 32.535q-.578.297-1.219.438-.64.156-1.344.156-2.5 0-3.828-1.64-1.312-1.657-1.312-4.782t1.312-4.781q1.328-1.656 3.828-1.656.703 0 1.344.156.656.156 1.219.453v2.719q-.625-.578-1.219-.844-.594-.281-1.219-.281-1.344 0-2.031 1.078-.687 1.062-.687 3.156t.687 3.172q.688 1.062 2.031 1.062.625 0 1.219-.265.594-.281 1.219-.86z"/><text x="200.5" y="32.78" fill="#D9B8FF" font-family="Helvetica" font-size="17" textLength="71">resource</text><g fill="none"><path d="M111.892 225.684c4.04 30.52 9.528 72.006 13.568 102.566" style="stroke:#ffaf37;stroke-width:2"/><path d="m109.53 207.84-3.586 18.632 11.896-1.575z" style="stroke:#ffaf37;stroke-width:2"/></g><path fill="none" d="M149.464 383.904c19.03 30.52 46.496 74.576 65.556 105.136m-75.08-120.41 4.432 18.449 10.183-6.35z" style="stroke:#ffaf37;stroke-width:2"/><g fill="none"><path d="M307.783 383.73c-19.8 30.52-48.493 74.75-68.313 105.31" style="stroke:#ffaf37;stroke-width:2"/><path d="m317.58 368.63-14.83 11.835 10.067 6.531z" style="stroke:#ffaf37;stroke-width:2"/></g><path fill="none" d="M198.39 61.584c-22.3 30.52-55.02 75.316-77.35 105.886m87.97-120.42-15.464 10.994 9.69 7.08zm38.956 14.448C270.646 92.018 304 136.9 326.72 167.47M237.23 47.05l5.92 18.026 9.632-7.157z" style="stroke:#ffaf37;stroke-width:2"/><g fill="none"><path d="M338.429 225.797c-2.11 30.52-4.979 71.893-7.099 102.453" style="stroke:#ffaf37;stroke-width:2"/><path d="m339.67 207.84-7.227 17.543 11.971.828z" style="stroke:#ffaf37;stroke-width:2"/></g></svg>
